svgs/sharp-light/left-long-to-line.svg

<svg xmlns="http://www.w3.org/2000/svg" viewBox="0 0 640 512"><!--! Font Awesome Pro 6.5.2 by @fontawesome - https://fontawesome.com License - https://fontawesome.com/license (Commercial License) Copyright 2024 Fonticons, Inc. --><path d="M0 80V64H32V80 432v16H0V432 80zM320 216l-32 0V184 141.3L173.3 256 288 370.7V328 296l32 0 288 0 0-80-288 0zm0-120v32 24 32h32H608h32v32 80 32H608 352 320v32 24 32H288L150.6 278.6 128 256l22.6-22.6L288 96h32z"/></svg>

<svg xmlns="http://www.w3.org/2000/svg" viewBox="0 0 640 512"><!--! Font Awesome Pro 6.6.0 by @fontawesome - https://fontawesome.com License - https://fontawesome.com/license (Commercial License) Copyright 2024 Fonticons, Inc. --><path d="M0 80L0 64l32 0 0 16 0 352 0 16L0 448l0-16L0 80zM320 216l-32 0 0-32 0-42.7L173.3 256 288 370.7l0-42.7 0-32 32 0 288 0 0-80-288 0zm0-120l0 32 0 24 0 32 32 0 256 0 32 0 0 32 0 80 0 32-32 0-256 0-32 0 0 32 0 24 0 32-32 0L150.6 278.6 128 256l22.6-22.6L288 96l32 0z"/></svg>
